X:7405
T:The Three Grey Walls
O:england
M:6/8
L:1/8
C:Rob Greenway
R:Double Jig
K:EDor
BGE FGA|BdB fBe|gfe dBf|fed cde|BGE FGA|BdB fBe|d2B cde|dcB ~A3:||
|dBG ~A3|BGE F3|EFG FGA|Bcd f2e|dBG ~A3|BGE F3|EGF GFE|DB,F E3|
|dBG ~A3|BGE F3|EFG FGA|Bcd fef|gfe dBf|fed cde|dcB AB=c|BGF E3||


